libs/ui/packages/crypto-icons/src/svg/FCT.svg

<svg width="24" height="24" viewBox="0 0 24 24" fill="none">
<path d="M5.7645 7.97512C5.73975 8.14162 5.7465 8.25712 5.835 8.34487C5.721 8.54362 5.6325 8.69137 5.54775 8.85637C5.63325 8.69137 5.721 8.54662 5.835 8.37637C6.08925 8.69437 6.8835 8.69437 7.96425 8.34487C8.09175 8.31337 8.09175 8.59912 8.09175 8.59912C8.09175 8.75812 8.0595 8.98012 6.693 9.17137C6.31125 9.23437 5.7705 9.20287 5.517 8.91637C5.45325 8.82187 5.42175 8.69437 5.42175 8.53537C5.42175 8.50387 5.42175 8.47237 5.45325 8.40787C5.4545 8.40611 5.45575 8.40436 5.457 8.40262C5.46978 8.34907 5.48997 8.29757 5.517 8.24962C5.5485 8.15437 5.61225 8.09062 5.676 7.99537C5.64375 8.05912 5.58075 8.18587 5.517 8.24962C5.55076 8.15426 5.60504 8.06747 5.676 7.99537L5.7645 7.97512ZM5.955 7.56637C6.0015 7.49737 6.0525 7.42912 6.12075 7.36012L6.0255 7.48762C6.01992 7.49303 6.01442 7.49853 6.009 7.50412C6.04275 7.45687 6.0795 7.40962 6.12075 7.36012L6.0255 7.48762C6.0006 7.51258 5.97707 7.53887 5.955 7.56637ZM5.955 7.56637C5.91525 7.62487 5.8785 7.68262 5.835 7.74112C5.83088 7.74525 5.82688 7.74951 5.823 7.75387C5.79668 7.79526 5.77093 7.83702 5.74575 7.87912L5.955 7.56637ZM6.63075 6.80512C6.726 6.72562 6.8205 6.63637 6.91575 6.56512C6.82679 6.67837 6.76173 6.8085 6.7245 6.94762C6.693 7.04212 6.693 7.13737 6.756 7.20112C6.75023 7.20685 6.74448 7.2126 6.73875 7.21837C6.94875 7.45237 7.63575 7.38337 8.50425 7.01062C8.79 6.88312 9.0765 6.75562 9.33075 6.59812C9.426 6.56587 9.55275 6.72487 9.585 6.75562C9.6165 6.78787 9.648 6.88312 9.585 6.94687C9.267 7.13737 8.9175 7.32787 8.53575 7.45537C7.44375 7.92337 6.5655 7.99312 6.324 7.69462L6.31125 7.70962C6.27975 7.61437 6.24825 7.55062 6.27975 7.42387C6.27975 7.39162 6.27975 7.36012 6.31125 7.32787C6.34007 7.29054 6.37139 7.25521 6.405 7.22212C6.36064 7.26567 6.31882 7.31175 6.27975 7.36012C6.27975 7.32787 6.31125 7.26487 6.31125 7.23262C6.375 7.10512 6.43875 7.01062 6.534 6.88312C6.5565 6.86662 6.5775 6.84937 6.6 6.83137C6.696 6.69637 6.83775 6.58012 6.97875 6.43837C7.23375 6.21637 7.23375 6.21637 7.3605 6.12112C7.38736 6.09345 7.41674 6.06834 7.44825 6.04612C7.43749 6.0551 7.42674 6.0641 7.416 6.07312C7.506 6.00562 7.599 5.93887 7.6965 5.87362L7.71 5.86612L7.75875 5.83162C8.21455 5.53246 8.69832 5.27827 9.20325 5.07262C9.28575 5.02612 9.36825 4.98562 9.45075 4.94962C9.402 4.96912 9.363 4.98637 9.31725 5.00587C9.2382 5.04066 9.15817 5.07318 9.07725 5.10337C8.94975 5.13562 8.94975 5.13562 8.69475 5.26312C8.56725 5.32612 8.56725 5.32612 8.34525 5.45362C8.25 5.51737 8.25 5.51737 8.02725 5.64412C7.93632 5.70454 7.8468 5.76706 7.75875 5.83162C9.83925 4.80787 9.69375 4.85212 9.5475 4.90987C9.36618 4.96582 9.18771 5.03065 9.01275 5.10412C8.27625 5.41912 7.58325 5.86612 7.14975 6.28087C7.0845 6.33337 7.05375 6.36337 6.97875 6.43837C7.01925 6.40012 7.062 6.36187 7.10625 6.32362C7.03859 6.38995 6.97474 6.46007 6.915 6.53362C6.81525 6.63337 6.7155 6.71362 6.63075 6.80512ZM4.8255 14.1776C4.833 14.2046 4.84125 14.2301 4.8495 14.2549C4.87253 14.3385 4.9164 14.4149 4.977 14.4769C4.91786 14.3042 4.8621 14.1304 4.80975 13.9556C4.80675 14.1619 4.869 14.3426 4.977 14.4769C4.90514 14.2813 4.85191 14.0794 4.818 13.8739C5.3895 14.6681 7.551 14.4769 10.3155 13.3016C13.8435 11.8084 17.0527 9.26662 17.4982 7.61437C17.5935 7.20112 17.5297 6.91537 17.307 6.69262C17.466 6.85162 17.625 7.04212 17.784 7.20112C17.9745 7.42387 18.006 7.70962 17.9115 8.09062C17.466 9.77437 14.193 12.3484 10.5698 13.8731C7.42425 15.2426 5.052 15.3034 4.82475 14.1784C4.77 13.9931 4.7145 13.7539 4.659 13.5874C4.6905 13.6826 4.72275 13.7779 4.7865 13.8739L4.80525 13.9406C4.80342 13.9804 4.80493 14.0203 4.80975 14.0599C4.80732 14.0234 4.80682 13.9869 4.80825 13.9504C4.80725 13.9471 4.80625 13.9439 4.80525 13.9406L4.8255 14.1776ZM9.9855 4.77262L10.0297 4.75462C10.983 4.50037 11.5868 4.62712 11.46 5.16712C11.4277 5.35837 11.301 5.54887 11.1105 5.73937C10.9515 5.80312 10.602 5.73937 10.5382 5.67562C10.6972 5.48512 10.7925 5.32612 10.824 5.19937C10.923 4.77937 10.4655 4.66687 9.72 4.86112L9.687 4.87312L9.9855 4.77262ZM9.92775 4.79512L10.0612 4.75462C10.0359 4.76012 10.0107 4.76587 9.9855 4.77187L9.92775 4.79512ZM4.659 13.0564V13.0789C4.569 12.9889 4.53525 12.8711 4.5315 12.7249C4.52342 12.6614 4.52166 12.5974 4.52625 12.5336C4.53 12.594 4.532 12.6546 4.53225 12.7151C4.52354 12.6528 4.52153 12.5897 4.52625 12.5269C4.51725 12.3604 4.5 12.1699 4.5 12.0304C4.5 12.2216 4.56375 12.3484 4.6275 12.4751C4.6275 12.5711 4.635 12.6739 4.6425 12.7774C4.6275 12.6739 4.6275 12.5711 4.6275 12.4751C6.756 14.7311 16.3222 8.88487 16.4175 6.40687C16.449 5.96212 16.1947 5.80312 16.068 5.70787L16.3223 5.86687L16.6395 6.08887C16.8945 6.31162 16.9897 6.62887 16.8945 7.04212C16.4812 8.63062 13.3665 11.0771 9.966 12.5074C7.2735 13.6691 5.19375 13.8214 4.659 13.0564ZM4.64325 10.6324L4.6905 10.4419C4.62675 10.6969 4.659 10.9189 4.78575 11.0456C4.78499 11.0481 4.78424 11.0506 4.7835 11.0531C4.84575 11.1281 4.93125 11.1821 5.04 11.2361C5.13525 11.3636 5.07225 11.6809 5.07225 11.6809C5.04 11.7761 5.0085 11.9036 4.94475 11.8721C4.62675 11.7131 4.5 11.4589 4.53225 11.0771C4.50153 11.2668 4.5471 11.4609 4.659 11.6171L4.662 11.5991C4.57326 11.4523 4.53851 11.2791 4.56375 11.1094L4.5765 11.0269C4.56896 11.0538 4.56468 11.0815 4.56375 11.1094L4.62675 10.6646L4.6905 10.4096V10.3466L4.64325 10.6324ZM5.10975 9.85237C5.04967 9.97957 5.0051 10.1135 4.977 10.2514C4.881 10.1239 4.8495 9.96562 4.881 9.77437C4.881 9.71137 4.881 9.67912 4.91325 9.61612C4.97386 9.4309 5.04806 9.25041 5.13525 9.07612C5.10464 9.17043 5.0945 9.27019 5.10549 9.36874C5.11648 9.46729 5.14836 9.56236 5.199 9.64762L5.17875 9.69487C5.577 10.2169 7.029 10.0849 8.88525 9.29812C11.2688 8.24962 13.4617 6.53362 13.7482 5.45362C13.8435 5.04112 13.716 4.78612 13.3665 4.65862C13.4303 4.62712 13.4302 4.62712 13.6207 4.69087C13.7482 4.72312 13.8435 4.75462 13.9065 4.75462C14.3197 4.91362 14.4788 5.19937 14.352 5.64412C14.034 6.85162 11.6505 8.72662 9.04425 9.83812C6.97875 10.6961 5.3895 10.8551 4.977 10.2514L5.10975 9.85237ZM10.0132 19.0099C9.6315 19.0226 9.315 18.9829 9.07575 18.8936C8.88525 18.7984 8.631 18.7031 8.47275 18.6079C8.8605 18.7684 9.369 18.8081 9.954 18.7504C13.3028 18.4204 19.1753 14.9014 19.5 12.6026L19.4685 12.6979C19.433 12.8868 19.4117 13.078 19.4047 13.2701C19.4047 13.3016 19.4047 13.3331 19.3732 13.3654C18.9915 14.7311 16.2908 16.8604 13.335 18.1309C12.0038 18.6986 10.8525 18.9806 10.0147 19.0099C10.0142 19.0099 10.0138 19.0099 10.0132 19.0099ZM10.3853 17.7034L10.443 17.6231C10.4235 17.6494 10.4055 17.6756 10.3868 17.7026C10.869 17.5676 11.388 17.3929 11.9362 17.1776C12.2857 17.0824 12.4133 17.3051 12.4133 17.3051C12.4448 17.3366 12.4448 17.4641 12.2543 17.5594C11.4563 17.8714 10.7213 18.0956 10.0755 18.2306C10.0707 18.2399 10.066 18.2491 10.0612 18.2584L10.071 18.2314C8.9445 18.4676 8.09025 18.4339 7.64625 18.1309C7.48725 18.0034 7.2645 17.8459 7.10625 17.7184C7.61775 18.1564 8.80125 18.1466 10.3853 17.7034ZM6.4065 17.0194C6.279 16.8604 6.12075 16.7014 6.0255 16.5424C6.153 16.7014 6.3435 16.9234 6.47025 17.0824C6.46902 17.0659 6.46188 17.0505 6.45017 17.0389C6.43845 17.0274 6.42294 17.0204 6.4065 17.0194ZM11.46 4.53187C11.6505 4.53187 11.9048 4.50037 12.0953 4.50037C12.7628 4.50037 13.0807 4.75462 12.9532 5.26312C12.7942 5.86687 11.9363 6.72487 10.824 7.48687C10.602 7.58212 10.3793 7.29637 10.443 7.16962C10.443 7.13737 10.4745 7.13737 10.4745 7.13737C11.46 6.46987 12.1905 5.73937 12.3495 5.19937C12.477 4.69087 12.0637 4.46887 11.3325 4.53187H11.46ZM15.273 5.26312C15.6547 5.45362 15.813 5.77162 15.6863 6.24787C15.3053 7.67737 12.5085 9.87037 9.4575 11.1731C8.88525 11.4266 8.31375 11.6179 7.80525 11.7761C7.51875 11.8084 7.48725 11.4266 7.61475 11.2361C7.64625 11.1731 7.67775 11.1731 7.71 11.1409C8.18625 11.0134 8.69475 10.8236 9.2355 10.6009C12.1267 9.36187 14.7645 7.26487 15.1147 5.92987C15.2415 5.45362 15.051 5.13562 14.6378 4.97737C14.8282 5.07262 15.0825 5.16787 15.273 5.26237V5.26312ZM18.5782 8.40862L18.6735 8.56762C18.7688 8.82187 18.7687 8.82187 18.7687 8.94862V8.98012C18.6735 8.94862 18.4837 8.56762 18.4515 8.40862C18.4515 8.21812 18.4192 8.09062 18.324 7.96387L18.579 8.40862H18.5782ZM19.2457 10.0924C19.2772 10.2514 19.2772 10.4419 19.2142 10.6646C18.8325 12.0626 16.449 14.1274 13.557 15.6214C13.2397 15.7481 13.0485 15.5254 13.1122 15.3034C13.138 15.2214 13.1952 15.1529 13.2712 15.1129C16.1947 13.5874 18.6412 11.4904 19.0238 10.0609C19.0868 9.80587 19.0868 9.58387 19.0238 9.39337C19.119 9.64762 19.2142 9.90187 19.2457 10.0924ZM19.4685 11.4274V11.6809C19.4685 11.8084 19.4685 11.9036 19.4363 12.0626C19.2143 12.9206 18.165 14.0321 16.7355 15.1129C16.5127 15.2719 16.3852 15.0491 16.4175 14.8901C16.4473 14.7929 16.5021 14.7052 16.5765 14.6359C18.0697 13.5244 19.1505 12.3799 19.3732 11.4904C19.4047 11.3314 19.4362 11.1731 19.4047 11.0141L19.4685 11.4266V11.4274ZM6.31125 7.70887C6.27975 7.61362 6.24825 7.54987 6.27975 7.42312C6.24825 7.54987 6.27975 7.61362 6.31125 7.70812V7.70887ZM5.51625 8.91637C5.45325 8.82112 5.42175 8.69362 5.42175 8.53462C5.42175 8.69362 5.42175 8.78962 5.517 8.91637H5.51625ZM4.97625 10.2506C4.881 10.1231 4.8495 9.96487 4.881 9.77362C4.8495 9.96487 4.881 10.1239 4.977 10.2506H4.97625ZM16.9575 11.3629C16.9823 11.4315 16.9895 11.5052 16.9783 11.5773C16.9672 11.6493 16.9381 11.7175 16.8937 11.7754C15.4957 13.0466 13.4303 14.3179 11.2687 15.2389C8.05875 16.5739 5.64375 16.6691 5.42175 15.5246C5.3895 15.4294 5.42175 15.4931 5.45325 15.4616C5.45325 15.4931 5.45325 15.6521 5.58075 15.8426C5.5485 15.7789 5.517 15.7474 5.4855 15.6836C5.45325 15.6521 5.45325 15.6206 5.42175 15.5884C5.358 15.4931 5.3265 15.3664 5.26275 15.2711C5.8665 16.0654 8.091 15.9064 10.9515 14.6674C13.1123 13.7456 15.1777 12.4429 16.5765 11.2039C16.8307 11.0764 16.926 11.2676 16.9575 11.3629ZM8.9175 17.1769C8.949 17.2406 8.98125 17.3681 8.85375 17.3996C7.71 17.5901 6.8835 17.4949 6.50175 17.0816C6.375 16.9226 6.1845 16.7006 6.057 16.5416C6.4065 16.9864 7.2645 17.1139 8.50425 16.9226C8.727 16.9226 8.88525 17.1139 8.91675 17.1776L8.9175 17.1769ZM18.9277 14.8579C19.023 14.6674 19.119 14.3809 19.1827 14.1904C18.8003 15.4294 16.3538 17.3359 13.6845 18.4804C12.0315 19.1786 10.665 19.4329 9.9345 19.2109C10.125 19.2739 10.4108 19.3384 10.6335 19.3699C12.6675 19.6871 17.8155 17.1454 18.9285 14.8579H18.9277ZM17.2755 17.1454C17.2755 17.1769 17.2118 17.2729 17.085 17.3681C16.3853 17.9396 15.432 18.5119 14.4473 18.9244C13.6208 19.2739 12.8895 19.4644 12.3495 19.4966H11.5545C12.1905 19.5281 13.1122 19.3061 14.2245 18.8614C15.3368 18.3844 16.4175 17.7491 17.2118 17.0816C17.244 17.0816 17.244 17.0501 17.2755 17.0501C17.2755 17.0501 17.2755 17.0816 17.307 17.0816C17.307 17.0816 17.307 17.1139 17.2755 17.1454ZM4.881 9.64762C4.881 9.61612 4.91325 9.55237 4.91325 9.52012C4.977 9.32962 5.10375 9.04387 5.1675 8.85262C5.1675 8.94862 5.13525 9.01237 5.10375 9.10762C5.0085 9.26662 4.94475 9.45712 4.881 9.64762Z" fill="#417BA4"/>
</svg>

<svg width="24" height="24" viewBox="0 0 24 24" fill="none"><path fill="#417ba4" d="M5.765 7.975c-.025.167-.018.282.07.37-.114.199-.202.346-.287.511.085-.165.173-.31.287-.48.254.318 1.048.318 2.13-.031.127-.032.127.254.127.254 0 .16-.033.381-1.399.572-.382.063-.922.032-1.176-.255a.67.67 0 0 1-.095-.38c0-.032 0-.064.031-.128l.004-.005a.6.6 0 0 1 .06-.153c.031-.096.095-.16.159-.255-.032.064-.095.19-.159.255a.7.7 0 0 1 .159-.255zm.19-.409c.046-.069.098-.137.166-.206l-.096.128-.016.016q.05-.07.112-.144l-.096.128a1 1 0 0 0-.07.078m0 0c-.04.059-.077.117-.12.175l-.012.013-.077.125zm.676-.76c.095-.08.19-.17.285-.24a1.1 1.1 0 0 0-.192.382c-.031.094-.031.19.032.253l-.017.017c.21.234.897.165 1.765-.207.286-.128.572-.255.827-.413.095-.032.222.127.254.158.031.032.063.127 0 .19a5.4 5.4 0 0 1-1.05.51c-1.091.467-1.97.537-2.211.239l-.013.015c-.031-.096-.063-.16-.031-.286 0-.032 0-.064.031-.096q.044-.056.094-.106-.066.066-.125.138c0-.032.031-.095.031-.127.064-.128.128-.222.223-.35l.066-.052c.096-.135.238-.25.379-.393.255-.222.255-.222.381-.317l.056-.048a6 6 0 0 1 .28-.2l.014-.007.049-.034q.686-.45 1.444-.76a3 3 0 0 1 .248-.122l-.134.056q-.119.052-.24.097c-.127.033-.127.033-.382.16-.128.063-.128.063-.35.19-.095.064-.095.064-.318.191q-.136.09-.268.188c2.08-1.024 1.935-.98 1.788-.922q-.271.084-.534.194c-.737.315-1.43.762-1.863 1.177a2 2 0 0 0-.171.157l.127-.114a3 3 0 0 0-.191.21c-.1.1-.2.18-.284.271m-1.806 7.372.024.077c.024.083.067.16.128.222a14 14 0 0 1-.167-.521.8.8 0 0 0 .167.52 3.3 3.3 0 0 1-.159-.602c.572.794 2.733.603 5.498-.572 3.528-1.494 6.737-4.035 7.182-5.688.095-.413.032-.699-.191-.921.159.159.318.35.477.508.19.223.222.509.128.89-.446 1.683-3.719 4.257-7.342 5.782-3.146 1.37-5.518 1.43-5.745.305-.055-.185-.11-.424-.166-.59.032.095.064.19.128.286l.018.067q-.003.06.005.119a1 1 0 0 1-.002-.11l-.003-.01zm5.16-9.405.045-.018c.953-.255 1.557-.128 1.43.412-.032.191-.159.382-.35.572-.159.064-.508 0-.572-.063q.24-.286.286-.477c.099-.42-.358-.532-1.104-.338l-.033.012zm-.057.022.133-.04q-.038.007-.075.017zm-5.269 8.261v.023c-.09-.09-.124-.208-.127-.354a1 1 0 0 1-.006-.191q.006.09.006.181a1 1 0 0 1-.006-.188c-.009-.167-.026-.357-.026-.497 0 .192.064.318.128.445q.002.146.014.302c-.014-.103-.014-.206-.014-.302 2.128 2.256 11.694-3.59 11.79-6.068.031-.445-.223-.604-.35-.7l.254.16.318.222c.255.223.35.54.255.953-.414 1.589-3.528 4.035-6.929 5.465-2.692 1.162-4.772 1.314-5.307.55m-.016-2.424.048-.19c-.064.255-.032.477.095.604l-.002.007a.8.8 0 0 0 .256.183c.095.128.032.445.032.445-.032.095-.064.223-.127.191-.318-.159-.445-.413-.413-.795a.73.73 0 0 0 .127.54l.003-.018a.74.74 0 0 1-.098-.49l.013-.082a.4.4 0 0 0-.013.082l.063-.444.064-.255v-.063zm.467-.78q-.09.192-.133.4-.144-.191-.096-.478c0-.063 0-.095.032-.158a4 4 0 0 1 .222-.54.7.7 0 0 0 .064.572l-.02.047c.398.522 1.85.39 3.706-.397 2.384-1.048 4.577-2.764 4.863-3.844.096-.413-.032-.668-.381-.795.063-.032.063-.032.254.032.127.032.223.064.285.064.414.159.573.444.446.89-.318 1.207-2.702 3.082-5.308 4.193-2.065.858-3.655 1.017-4.067.413zm4.903 9.158c-.381.013-.698-.027-.937-.116-.19-.096-.445-.19-.603-.286.387.16.896.2 1.481.142 3.349-.33 9.221-3.849 9.546-6.147l-.032.095q-.053.284-.063.572c0 .032 0 .063-.032.095-.382 1.366-3.082 3.495-6.038 4.766-1.331.568-2.483.85-3.32.879zm.372-1.307.058-.08-.056.08q.725-.203 1.55-.525c.349-.096.476.127.476.127.032.032.032.16-.159.254-.798.312-1.533.537-2.178.672l-.015.027.01-.027c-1.126.237-1.98.203-2.425-.1-.159-.128-.381-.285-.54-.413.512.438 1.695.429 3.28-.015m-3.978-.684c-.128-.159-.286-.318-.381-.477.127.16.317.381.444.54a.07.07 0 0 0-.063-.063M11.46 4.532c.19 0 .445-.032.635-.032.668 0 .986.255.858.763-.159.604-1.017 1.462-2.129 2.224-.222.095-.445-.19-.381-.317 0-.033.032-.033.032-.033C11.46 6.47 12.19 5.74 12.35 5.2c.127-.508-.286-.73-1.018-.667zm3.813.731c.382.19.54.509.413.985-.38 1.43-3.177 3.622-6.228 4.925a15 15 0 0 1-1.653.603c-.286.032-.318-.35-.19-.54.031-.063.063-.063.095-.095.476-.128.985-.317 1.526-.54 2.89-1.24 5.528-3.336 5.879-4.671.127-.476-.064-.794-.477-.953.19.096.444.19.635.285zm3.305 3.146.096.159c.095.254.095.254.095.38v.032c-.095-.031-.285-.412-.317-.571 0-.19-.033-.318-.128-.445l.255.445m.668 1.683c.031.16.031.35-.032.573-.381 1.398-2.765 3.462-5.657 4.956-.317.127-.508-.096-.445-.318a.33.33 0 0 1 .16-.19c2.923-1.526 5.37-3.623 5.752-5.052q.095-.382 0-.668c.095.255.19.509.222.7m.223 1.335v.254c0 .127 0 .223-.033.382-.222.858-1.271 1.97-2.7 3.05-.223.159-.35-.064-.319-.223a.6.6 0 0 1 .16-.254c1.493-1.112 2.573-2.256 2.796-3.146.032-.159.063-.317.032-.476zM6.31 7.71c-.031-.095-.063-.16-.031-.286-.032.127 0 .19.031.285m-.795 1.207a.7.7 0 0 1-.094-.381c0 .159 0 .255.095.381m-.54 1.335q-.143-.191-.095-.477-.048.286.096.477m11.982 1.112a.43.43 0 0 1-.064.412c-1.398 1.272-3.464 2.543-5.625 3.464-3.21 1.335-5.625 1.43-5.847.286-.032-.096 0-.032.031-.063 0 .031 0 .19.128.38-.033-.063-.064-.095-.096-.158-.032-.032-.032-.063-.063-.096-.064-.095-.095-.222-.16-.317.605.794 2.829.635 5.69-.604 2.16-.921 4.226-2.224 5.624-3.463.255-.128.35.064.381.159m-8.04 5.814c.031.064.063.191-.064.223-1.144.19-1.97.095-2.352-.318-.127-.16-.317-.381-.445-.54.35.444 1.207.572 2.447.38.223 0 .381.192.413.256zm10.01-2.32a6 6 0 0 0 .255-.667c-.383 1.24-2.83 3.146-5.498 4.29-1.654.699-3.02.953-3.75.73.19.064.476.128.698.16 2.035.317 7.183-2.225 8.296-4.512zm-1.652 2.288c0 .032-.064.128-.191.223-.7.572-1.653 1.144-2.638 1.556-.826.35-1.557.54-2.097.573h-.795c.636.031 1.557-.19 2.67-.636 1.112-.477 2.193-1.112 2.987-1.78.032 0 .032-.03.064-.03 0 0 0 .03.031.03 0 0 0 .033-.031.064M4.88 9.648c0-.032.032-.096.032-.128.064-.19.19-.476.255-.667 0 .096-.033.16-.064.255-.096.159-.16.35-.223.54"/></svg>
